X:341
T:Spirit of the Dance
M:6/8
K:D
A | d2 A B2 A | d2 A B2 A | def g2 f | e2 d cBA |
d2 A B2 A | d2 A B2 A | def gab | age d2 A |
d2 A B2 A | d2 A B2 A | def g2 f | e2 d cBA |
d2 A B2 A | d2 A B2 A | def gab | age d3 ||
Adf g3 | f3 e3 | Adf a3 | g3 f3 |
Adf g3 | f3 e3 | fga fed | f2 e d2 d |
Adf g3 | f3 e3 | Adf a3 | g3 f3 |
Adf g3 | f3 e3 | fga fed | f2 e d2 ||
